X: 4409
T: "TYROLIENNE" VALSE
R: Valse
%R: waltz
B: James Kerr "Merry Melodies" v.4 p.45 #409
Z: 2016 John Chambers <jc:trillian.mit.edu>
M: 3/4
L: 1/8
K: C
(GF) |\
(EG)(e3d) | (cE)(G3c) | BDFGBd | (cE)G2(GF) |\
(EG)(e3d) | (cE)G3c | BDFGBd | c4 H:|
|: e2 |\
dcA3^F | GBd3e | dcA^FAe | dBGg^fe |\
dcA3^F | GBd3e | dcAd^fa | "_D.C."g4 :|

%%sep 1 1 500
%%sep 1 1 500

